!!!OTL: 352. Der kleine Kniereiter.
!!!ARE: Europa, Mitteleuropa, Deutschland, Berlin
!!!SCT: K0352
!!!YEM: Copyright 1995, estate of Helmut Schaffrath.
**kern	**text
*clefG2	*
*M3/4	*
*k[f#]	*
*G:	*
!LO:TX:a:t=Langſam, das Kind ſanft hin- und herwiegend.	!
{4d	So
=1	=1
4.g	fah-
8a	-ren
4b	die
=2	=2
4a	Dam-
4d}	-en,
{4d	ſo
=3	=3
4.a	fah-
8b	-ren
4cc	die
=4	=4
4b	Da-
4g}	-men,
{4d	ſo
=5	=5
!LO:TX:a:t=Raſcher, den Tritt. der Pferde nachahmend,	!
4d^	rei-
4d	-ten
4d	die
=6	=6
4d	Her-
4d}	-ren,
{4d	ſo
=7	=7
4d	rei-
4d	-ten
4d	die
=8	=8
4d	Her-
4d}	-ren,
{4d	ſo
=9||	=9||
!LO:TX:a:t=noch raſcher und etwas hüpfend,	!
4g^	juckelt
4g	.
4g	der
=10	=10
4g	Bauer,
4g}	.
{4d	ſo
=11	=11
4g^	juckelt
4g	.
4g	der
=12	=12
4g	Bau-
4g	-er.
4r}	.
=13	=13
{4dd^	Hutſchäck
!LO:TX:a:t=ſtark hüpfend.	!
4d	.
4d	ſchack,
=14	=14
4d	ſchack
4d	ſchack
4d}	ſchack,
=15	=15
{4dd^	hutſchack
4d	.
4d	ſchack,
=16	=16
4d	ſchack
4d}	ſchack.
==	==
!!!AGN: Kinder -, Schaukel -, Knierreiter -, Spiel - Lied
!!!ONB: ESAC (Essen Associative Code) Database: KINDER
!!!AMT: simple triple
!!!AIN: vox
!!!EED: Helmut Schaffrath
!!!EEV: 1.0
!!Aus Berlin: Jrmer, Volkslieder 68.
!!!GTL: III. Schaukel- und Kniereiterliedchen, wie sie von Papa und Mama den Schosskindern vorgesungen werden.
!!!URL-scan: https://archive.org/details/DeutschesKinderliedUndKinderspiel/page/79/mode/1up
!!!ENC: Anna Maria Matuszewska
!!!EEV: 2024/30/08
*-	*-
